X:2846
T:B\aansull
T:Lullaby
C:anon.
O:Norway
R:Lullaby
Z:Transcribed by Frank Nordberg - http://www.musicaviva.com
F:http://abc.musicaviva.com/tunes/norway/baansull/baansull-1.abc
M:2/4
L:1/8
Q:1/4=88
K:Dm
DEFG|AAA2|A_B^cd|A2A2|
w:Sul-lan lul-lan li-te ban, no skal bar-net so-ve,
Bd^cc|_BBA2|AGFE|D2D2|]
w:som-ne trygt i mor sitt fang, so-ve trygt p\aa pu-te.
W:
W:Sullan lullan lite ban,
W:no skal barnet sove,
W:somne trygt i mor sitt fang,
W:sove trygt p\aa pute.
W:
W:
W:  From Musica Viva - http://www.musicaviva.com
W:  the Internet center for free sheet music downloads.

